X:18
T:The Cabin Porch
C:Corwin Zekley
L:1/8
M:4/4
K:A
"A" ABcd eAdA | cBAG A2 AB | cAdA eaga |"D" f6 fg |$"A" abaf eAce |"D" fedc d2 dc |1"E" BAGF E3 A | %7
 BEcE dcBc :|2"E" BAGF EFGA ||"A" BAAG A2 (3ABc |:$"D" d4 dcde | fg a2 a2 fg |"F#m" afge fece | %13
 f4 f2 fg |$"A" afge fece |"D" fedc d2 dc |1"E" BAGF E3 A | BEcE dcBc :|2"E" BAGF EFGA || %19
"A" BAAG A4 |] %20

